lib/healthicons/icons/outline/people/call_centre.svg

<svg fill="none" height="48" viewBox="0 0 48 48" width="48" xmlns="http://www.w3.org/2000/svg"><g fill="#333"><path d="m20.4036 22.2023c.9946 0 1.8008-.8062 1.8008-1.8008 0-.9945-.8062-1.8008-1.8008-1.8008s-1.8008.8063-1.8008 1.8008c0 .9946.8062 1.8008 1.8008 1.8008z"/><path clip-rule="evenodd" d="m11.4094 30.0084v11.9916h17.1124v-6.5119h4.2929c.2681 0 .5239-.0528.7576-.1485l-2.3811-1.8515h-4.6694v6.5119h-13.1124v-10.7982l-.5595-.5808c-1.6421-1.705-4.84984-5.6896-4.8499-10.646-.00002-1.6305.61533-4.1265 2.4657-6.1896 1.6337-1.82142 4.3733-3.46499 8.9374-3.74385v7.05115c-2.5052.4689-4.4011 2.667-4.4011 5.3077 0 2.9823 2.4181 5.4 5.4011 5.4 1.1352 0 2.1887-.3501 3.0581-.9483l14.0707 10.9224c-.0216.1253-.0329.254-.0329.3854 0 1.2429 1.0076 2.2505 2.2505 2.2505s2.2505-1.0076 2.2505-2.2505-1.0076-2.2505-2.2505-2.2505c-.3731 0-.725.0908-1.0348.2515l-13.8344-10.7391c.5833-.8623.924-1.9021.924-3.0214 0-2.6408-1.896-4.8388-4.4012-5.3077v-7.08727c2.5428.04648 4.3049.38774 5.6379.88736 1.4122.52934 2.4588 1.27921 3.5137 2.25741l.1419.1315c1.0345.9587 1.3429 1.2445 1.5174 1.7094 1.3025 3.4696 3.1147 8.2936 4.2333 11.2705h-3.6326v2.8884l2 1.5552v-2.4436h1.6325c1.397 0 2.3646-1.3931 1.8732-2.7008-1.1184-2.9767-2.9313-7.8022-4.234-11.2726-.349-.9296-1.0249-1.5504-1.8746-2.33069-.0969-.08897-.196-.18002-.2972-.27384-2.3634-2.1915-5.0556-3.68367-11.1165-3.68367-11.7925 0-14.79815 7.8752-14.7981 11.975.00007 5.7671 3.68312 10.241 5.4094 12.0334zm8.9937-6.208c1.8788 0 3.4012-1.5226 3.4012-3.4s-1.5224-3.4-3.4012-3.4-3.4011 1.5226-3.4011 3.4 1.5223 3.4 3.4011 3.4z" fill-rule="evenodd"/></g></svg>

<svg width="48" height="48" viewBox="0 0 48 48" fill="none" xmlns="http://www.w3.org/2000/svg">
<path d="M20.4036 22.2024C21.3982 22.2024 22.2044 21.3961 22.2044 20.4016C22.2044 19.407 21.3982 18.6007 20.4036 18.6007C19.409 18.6007 18.6028 19.407 18.6028 20.4016C18.6028 21.3961 19.409 22.2024 20.4036 22.2024Z" fill="#333333"/>
<path fill-rule="evenodd" clip-rule="evenodd" d="M11.4094 30.0084V42H28.5218V35.4881H32.8147C33.0828 35.4881 33.3386 35.4354 33.5723 35.3397L31.1912 33.4881H26.5218V40H13.4094V29.2019L12.8499 28.621C11.2078 26.916 8.00006 22.9315 8 17.975C7.99998 16.3445 8.61533 13.8486 10.4657 11.7855C12.0994 9.96401 14.839 8.32045 19.4031 8.04158V15.0928C16.8979 15.5617 15.002 17.7597 15.002 20.4004C15.002 23.3828 17.4201 25.8005 20.4031 25.8005C21.5383 25.8005 22.5918 25.4503 23.4612 24.8521L37.5319 35.7746C37.5103 35.8998 37.499 36.0286 37.499 36.1599C37.499 37.4028 38.5066 38.4104 39.7495 38.4104C40.9924 38.4104 42 37.4028 42 36.1599C42 34.917 40.9924 33.9095 39.7495 33.9095C39.3764 33.9095 39.0245 34.0002 38.7147 34.1609L24.8803 23.4218C25.4636 22.5596 25.8043 21.5198 25.8043 20.4004C25.8043 17.7597 23.9083 15.5616 21.4031 15.0928V8.00547C23.9459 8.05194 25.708 8.3932 27.041 8.89282C28.4532 9.42217 29.4998 10.1721 30.5547 11.1502L30.6966 11.2818C31.7311 12.2404 32.0395 12.5262 32.214 12.9912C33.5165 16.4608 35.3287 21.2847 36.4473 24.2616L32.8147 24.2616V27.15L34.8147 28.7053V26.2616H36.4472C37.8442 26.2616 38.8118 24.8685 38.3204 23.5608C37.202 20.5841 35.3891 15.7586 34.0864 12.2883C33.7374 11.3586 33.0615 10.7378 32.2118 9.95755C32.1149 9.86857 32.0158 9.77752 31.9146 9.6837C29.5512 7.49221 26.859 6.00003 20.7981 6.00003C9.0056 6.00003 5.99995 13.8752 6 17.9751C6.00007 23.7422 9.68312 28.216 11.4094 30.0084ZM20.4031 23.8005C22.2819 23.8005 23.8043 22.2778 23.8043 20.4004C23.8043 18.523 22.2819 17.0004 20.4031 17.0004C18.5243 17.0004 17.002 18.523 17.002 20.4004C17.002 22.2778 18.5243 23.8005 20.4031 23.8005Z" fill="#333333"/>
</svg>
